static/img/kroki/838f9a3c5023bf364efdbf4ad87f6340.svg

<?xml version="1.0" encoding="us-ascii" standalone="no"?><svg xmlns="http://www.w3.org/2000/svg" xmlns:xlink="http://www.w3.org/1999/xlink" contentStyleType="text/css" height="152px" preserveAspectRatio="none" style="width:210px;height:152px;" version="1.1" viewBox="0 0 210 152" width="210px" zoomAndPan="magnify"><defs/><g><!--class aws_ec2_instance--><g id="elem_aws_ec2_instance"><rect codeLine="23" fill="#3D176E" height="39.7891" id="aws_ec2_instance" rx="2.5" ry="2.5" style="stroke:#000D19;stroke-width:0.5;" width="192" x="9" y="106.79"/><ellipse cx="24" cy="126.6845" fill="#ADD1B2" rx="11" ry="11" style="stroke:#181818;stroke-width:1.0;"/><path d="M26.9688,132.3252 Q26.3906,132.622 25.75,132.7627 Q25.1094,132.9189 24.4063,132.9189 Q21.9063,132.9189 20.5781,131.2783 Q19.2656,129.622 19.2656,126.497 Q19.2656,123.372 20.5781,121.7158 Q21.9063,120.0595 24.4063,120.0595 Q25.1094,120.0595 25.75,120.2158 Q26.4063,120.372 26.9688,120.6689 L26.9688,123.3877 Q26.3438,122.8095 25.75,122.5439 Q25.1563,122.2627 24.5313,122.2627 Q23.1875,122.2627 22.5,123.3408 Q21.8125,124.4033 21.8125,126.497 Q21.8125,128.5908 22.5,129.6689 Q23.1875,130.7314 24.5313,130.7314 Q25.1563,130.7314 25.75,130.4658 Q26.3438,130.1845 26.9688,129.6064 L26.9688,132.3252 Z " fill="#000000"/><text fill="#D9B8FF" font-family="Helvetica" font-size="17" lengthAdjust="spacing" textLength="150" x="43" y="132.5698">aws_ec2_instance</text></g><!--class aws_ssm_instance--><g id="elem_aws_ssm_instance"><rect codeLine="26" fill="#3D176E" height="39.7891" id="aws_ssm_instance" rx="2.5" ry="2.5" style="stroke:#000D19;stroke-width:0.5;" width="196" x="7" y="7"/><ellipse cx="22" cy="26.8945" fill="#ADD1B2" rx="11" ry="11" style="stroke:#181818;stroke-width:1.0;"/><path d="M24.9688,32.5352 Q24.3906,32.832 23.75,32.9727 Q23.1094,33.1289 22.4063,33.1289 Q19.9063,33.1289 18.5781,31.4883 Q17.2656,29.832 17.2656,26.707 Q17.2656,23.582 18.5781,21.9258 Q19.9063,20.2695 22.4063,20.2695 Q23.1094,20.2695 23.75,20.4258 Q24.4063,20.582 24.9688,20.8789 L24.9688,23.5977 Q24.3438,23.0195 23.75,22.7539 Q23.1563,22.4727 22.5313,22.4727 Q21.1875,22.4727 20.5,23.5508 Q19.8125,24.6133 19.8125,26.707 Q19.8125,28.8008 20.5,29.8789 Q21.1875,30.9414 22.5313,30.9414 Q23.1563,30.9414 23.75,30.6758 Q24.3438,30.3945 24.9688,29.8164 L24.9688,32.5352 Z " fill="#000000"/><text fill="#D9B8FF" font-family="Helvetica" font-size="17" lengthAdjust="spacing" textLength="154" x="41" y="32.7798">aws_ssm_instance</text></g><!--link aws_ssm_instance to aws_ec2_instance--><g id="link_aws_ssm_instance_aws_ec2_instance"><path codeLine="29" d="M105,47.22 C105,64.36 105,83.27 105,100.41 " fill="none" id="aws_ssm_instance-to-aws_ec2_instance" style="stroke:#1A83AF;stroke-width:2.0;"/><polygon fill="#1A83AF" points="105,106.41,109,97.41,105,101.41,101,97.41,105,106.41" style="stroke:#1A83AF;stroke-width:2.0;"/></g><!--SRC=[XP1FImCn4CNl-oa2FHUwBThkHLWBHIz5h3UHCjrCkc4toJAJMghutRLM9IRzSttlntjlfjOI1PhExuH1iqBYZ1jjEo0meYHoswbh7OcUKg16uzYSEUil0dCmAEwmVKMlAuY9frfNZKLcCGoiMwYQDRcDbOTuJs3voqBh0shQ0dFfFUdLncCmHXQhYL8n6OVsHZ8VNsE2EP98FyXWC91v4ICNgyxU_KSiz1kAF7pQt7bCPYOLtzJPbNiY69aS-kkVtFW0Kcgx5bU1zdZOH1RfdxweGRhjdbRGSbZ37WcTttKuJQx2OYBL-2XyVmhEglth16nvYTLmgIrxi1MAzopx23nc4tc9sd_kvULaLCvU-ZT9NlO9]--></g></svg>

<svg xmlns="http://www.w3.org/2000/svg" width="210" height="152" viewBox="0 0 210 152"><rect width="192" height="39.789" x="9" y="106.79" fill="#3D176E" rx="2.5" ry="2.5" style="stroke:#000d19;stroke-width:.5"/><circle cx="24" cy="126.684" r="11" fill="#ADD1B2" style="stroke:#181818;stroke-width:1"/><path d="M26.969 132.325q-.578.297-1.219.438-.64.156-1.344.156-2.5 0-3.828-1.64-1.312-1.657-1.312-4.782t1.312-4.781q1.328-1.656 3.828-1.656.703 0 1.344.156.656.156 1.219.453v2.719q-.625-.579-1.219-.844-.594-.281-1.219-.281-1.343 0-2.031 1.078-.687 1.062-.687 3.156t.687 3.172q.688 1.062 2.031 1.062.625 0 1.219-.265.594-.281 1.219-.86z"/><text x="43" y="132.57" fill="#D9B8FF" font-family="Helvetica" font-size="17" textLength="150">aws_ec2_instance</text><rect width="196" height="39.789" x="7" y="7" fill="#3D176E" rx="2.5" ry="2.5" style="stroke:#000d19;stroke-width:.5"/><circle cx="22" cy="26.895" r="11" fill="#ADD1B2" style="stroke:#181818;stroke-width:1"/><path d="M24.969 32.535q-.578.297-1.219.438-.64.156-1.344.156-2.5 0-3.828-1.64-1.312-1.657-1.312-4.782t1.312-4.781q1.328-1.656 3.828-1.656.703 0 1.344.156.656.156 1.219.453v2.719q-.625-.578-1.219-.844-.594-.281-1.219-.281-1.343 0-2.031 1.078-.687 1.062-.687 3.156t.687 3.172q.688 1.062 2.031 1.062.625 0 1.219-.265.594-.281 1.219-.86z"/><text x="41" y="32.78" fill="#D9B8FF" font-family="Helvetica" font-size="17" textLength="154">aws_ssm_instance</text><path fill="none" d="M105 47.22v53.19" style="stroke:#1a83af;stroke-width:2"/><path fill="#1A83AF" d="m105 106.41 4-9-4 4-4-4z" style="stroke:#1a83af;stroke-width:2"/></svg>
